X: 18613
T: I Will If I Can
R: jig
M: 6/8
K: Gmajor
D|G(3Bcd gdB|edd d2B|G(3Bcd gdB|BAA A2D|
G(3Bcd gdB|def g3|edB cBA|BGF G2d||
g2d edB|edd def|g2d edB|BAA ABd|
g2d edB|def g3|edB cBA|BGF G3||

